X:1
T:Trinity, 11.12.12.10
T:Trinity, 11.12.12.10
T:Samuel Sebastian Wesley (1810-1876)
T:Public Domain Courtesy of the Cyber Hymnal™
C:Samuel Sebastian Wesley (1810-1876)
Z:Public Domain
Z:Courtesy of the Cyber Hymnal™
%%score ( 1 2 ) ( 3 4 )
L:1/8
Q:1/4=115
M:4/4
K:Eb
V:1 treble 
V:2 treble 
V:3 bass 
V:4 bass 
V:1
 [EG]2 E2 [DA]2 [DF]2 | [EB]4 [EG]4 | [B,E]4 [CE]2 [EA]2 | [EA]4 [EG]4 | %4
 ([B,E]2 [B,D]2) [B,E]2 [B,F]2 | ([B,G]2 [B,G]2) [B,F]2 [B,G]2 | [F=A]2 [FB]2 [Fd]2 c2 | [DB]8 | %8
 [EB]2 [DB]2 [EB]2 [Ee]2 | [Ee]4 [Ec]4 | [EB]3 [DG] [CE]2 [FA]2 | [EG]4 [DF]4 | %12
 [B,E]4 [CE]2 [B,E]2 | [CE]2 [DA]2 [EG]2 [CF]2 | [B,E]4 [DF]4 | E8 |] %16
V:2
 x2 E2 x4 | x8 | x8 | x8 | x8 | x8 | x6 (FE) | x8 | x8 | x8 | x8 | x8 | x8 | x8 | x8 | E8 |] %16
V:3
 [E,B,]2 [E,G,]2 [E,F,]2 [E,A,]2 | [E,G,]4 [E,B,]4 | [G,,B,]4 [A,,A,]2 [A,,C]2 | [E,C]4 [E,B,]4 | %4
 ([G,B,]2 [A,B,]2) [G,B,]2 [D,B,]2 | ([E,B,]2 [E,B,]2) [D,B,]2 [E,E]2 | %6
 [C,E]2 [B,,D]2 [F,B,]2 [F,=A,]2 | B,8 | [E,G,]2 [F,A,]2 [G,B,]2 [E,G,]2 | [C,A,]4 [A,,A,]4 | %10
 [E,G,]3 [B,,G,] [C,G,]2 [A,,C]2 | [B,,B,]4 B,4 | [G,,B,]4 [A,,E,]2 [G,,E,]2 | %13
 [A,,A,]2 [F,,A,]2 [G,,B,]2 [A,,A,]2 | [B,,G,]4 [B,,A,]4 | [E,G,]8 |] %16
V:4
 x8 | x8 | x8 | x8 | x8 | x8 | x8 | B,8 | x8 | x8 | x8 | x4 (B,,2 A,,2) | x8 | x8 | x8 | x8 |] %16

